!!!COM: Haydn, Franz Joseph
!!!OTL: String Quartet in C Major
!!!OPS: Opus 33
!!!ONM: No. 3
!!!OMD: Finale: Rondo. Presto
!!!OMV: 4
!!!SCT: H III:39
!!!SCA: Thematisch-bibliographisches Werkevererzeichnis (A. van Hoboken)
!!!YOR: Richault Edition, volume 7
!!!ENC: Frances Bennion
!!!CDT: 1732/3/31/-1809/5/31/
!!!CNT: Oesterreich
!!!YEC: Copyright (c) 1994, 2000 Center for Computer Assisted Research in the Humanities
!!!YEM: Rights to all derivative editions reserved.
!!!YEM: Refer to licensing agreement for further details.
!!!YEN: United States of America
**kern	**kern	**kern	**kern	**kern
*k[]	*k[]	*k[]	*k[]	*k[]
*C:	*C:	*C:	*C:	*C:
*clefF4	*clefC3	*clefF	*clefF	*clefF
*M2/4	*M2/4	*M2/4	*M2/4	*M2/4
8c	8G 8e	2r	8e 8cc	8gg
8r	8r	.	8r	8ee
8c	8e 8G	.	8e 8cc	8gg
8r	8r	.	8r	8ee
=2	=2	=2	=2	=2
4c	4G 4e	2r	4e 4cc	16gg
.	.	.	.	16ff
.	.	.	.	16ee
.	.	.	.	16ff
4r	4r	.	4r	8gg
.	.	.	.	8ee
=3	=3	=3	=3	=3
8c	8G 8e	2r	8e 8cc	16gg
.	.	.	.	16ff
8c	8e 8G	.	8cc 8e	16ee
.	.	.	.	16ff
8c	8G 8e	.	8e 8cc	16gg
.	.	.	.	16ff
8c	8G 8e	.	8cc 8e	16ee
.	.	.	.	16ff
=4	=4	=4	=4	=4
4c	4e 4G	2r	4e 4cc	16gg
.	.	.	.	16ff
.	.	.	.	16ee
.	.	.	.	16ff
4r	4r	.	4r	8gg
.	.	.	.	8ee
=5	=5	=5	=5	=5
8A	8e	2r	8cc#	8aa
8A	8e	.	8cc#	8aa
8A	8e	.	8cc#	8gg
8A	8e	.	8cc#	16ff
.	.	.	.	16gg
=6	=6	=6	=6	=6
8d	8d	2r	8dd	8ff
8d	8d	.	8dd	8ff
8G	8d	.	8b	8gg
8G	8d	.	8b	16ff
.	.	.	.	16gg
=7	=7	=7	=7	=7
8c	8c	2r	8cc	8ee
8c	8c	.	8cc	8ee
8F	8F	.	8a	8ff
8F	8F	.	16g	16ee
.	.	.	16f	16dd
=8	=8	=8	=8	=8
4G	4G	2r	4e	4cc
8GG	4r	.	8d	8b
8r	.	.	8r	8r
=9	=9	=9	=9	=9
2r	8b	2r	8dd	8gg
.	8g	.	8b	8r
.	8b	.	8dd	8gg
.	8g	.	8b	8r
=10	=10	=10	=10	=10
2r	16b	2r	16dd	4gg
.	16a	.	16cc	.
.	16g	.	16b	.
.	16a	.	16cc	.
.	8b	.	8dd	4r
.	8g	.	8b	.
=11	=11	=11	=11	=11
2r	8cc	2r	8ee	8gg
.	8g	.	8cc	8r
.	8cc	.	8ee	8gg
.	8g	.	8cc	8r
=12	=12	=12	=12	=12
2r	16cc	2r	16ee	4gg
.	16b	.	16dd	.
.	16a	.	16cc	.
.	16b	.	16dd	.
.	8cc	.	8ee	4r
.	8g	.	8cc	.
=13	=13	=13	=13	=13
2r	16dd	2r	16ff	8gg
.	16ee	.	16gg	.
.	16dd	.	16ff	8gg
.	16ee	.	16gg	.
.	16cc	.	16ee	8gg
.	16dd	.	16ff	.
.	16cc	.	16ee	8gg
.	16dd	.	16ff	.
=14	=14	=14	=14	=14
2r	16b	2r	16dd	4gg
.	16a	.	16cc	.
.	16g	.	16b	.
.	16f	.	16a	.
.	16e	.	16g	4r
.	16d	.	16f	.
.	16c	.	16e	.
.	16B	.	16d	.
=15	=15	=15	=15	=15
8B-	8c	2r	8e	8ccc
8G	8r	.	8r	8r
8B-	8g	.	8ee 8cc	8ccc
8G	8r	.	8r	8r
=16	=16	=16	=16	=16
16B-	4g	2r	4ee 4cc	4ccc
16A	.	.	.	.
16G	.	.	.	.
16A	.	.	.	.
8B-	4r	.	4r	4r
8G	.	.	.	.
=17	=17	=17	=17	=17
16B-	8g	2r	8ee 8cc	8ccc
16A	.	.	.	.
16G	8g	.	8cc 8ee	8ccc
16A	.	.	.	.
16B-	8g	.	8ee 8cc	8ccc
16A	.	.	.	.
16G	8g	.	8ee 8cc	8ccc
16A	.	.	.	.
=18	=18	=18	=18	=18
16B-	4g	2r	4cc 4ee	4ccc
16A	.	.	.	.
16G	.	.	.	.
16A	.	.	.	.
8B-	4r	.	4r	4r
8G	.	.	.	.
=19	=19	=19	=19	=19
8F	2c	2r	[2cc	16aa
.	.	.	.	16bb
8F	.	.	.	16ccc
.	.	.	.	16aa
8E	.	.	.	8gg
8E	.	.	.	8gg
=20	=20	=20	=20	=20
8D	8f	2r	8cc]	16ff
.	.	.	.	16gg
8D	8f	.	8b	16aa
.	.	.	.	16ff
8C	8g	.	8cc	8ee
8C	8g	.	8cc	8ee
=21	=21	=21	=21	=21
8F	8a	2r	8a	16dd
.	.	.	.	16ee
8F	8a	.	8a	16ff
.	.	.	.	16dd
8G	8f	.	16d	16b
.	.	.	16e	16cc
8G	8f	.	16f	16dd
.	.	.	16d	16b
=22	=22	=22	=22	=22
4C	4e	2r	4e	4cc
4r	4r	.	4r	4r
=23	=23	=23	=23	=23
4AA	4c	4.A	[2e	4.a
4r	4r	.	.	.
.	.	8B	.	8g#
=24	=24	=24	=24	=24
2r	2r	8c	2e]	8a
.	.	8B	.	8g#
.	.	8c	.	8a
.	.	8B	.	8b
=25	=25	=25	=25	=25
4AA	4e 4c	8A	2e	16cc
.	.	.	.	16dd
.	.	8B	.	16cc
.	.	.	.	16b
4r	4r	8c	.	8a
.	.	8B	.	8b
=26	=26	=26	=26	=26
4AA	4e 4c	8A	2e	16cc
.	.	.	.	16dd
.	.	8B	.	16cc
.	.	.	.	16b
4r	4r	8c	.	8a
.	.	8r	.	8cc
=27	=27	=27	=27	=27
4EE	4e 4G	4.e	2b	4.ee
4r	4r	.	.	.
.	.	8f#	.	8dd#
=28	=28	=28	=28	=28
2r	2r	8g	2b	8ee
.	.	8f#	.	8dd#
.	.	8g	.	8ee
.	.	8f#	.	8ff#
=29	=29	=29	=29	=29
4E	4G 4e	8e	2b	16gg
.	.	.	.	16aa
.	.	8f#	.	16gg
.	.	.	.	16ff#
4r	4r	8g	.	8ee
.	.	8f#	.	8ff#
=30	=30	=30	=30	=30
4E	4G 4e	8e	4.b	16gg
.	.	.	.	16aa
.	.	8f#	.	16gg
.	.	.	.	16ff#
4r	4r	8g	.	8ee
.	.	8r	8r	8ee
=31	=31	=31	=31	=31
8A	4.f	2r	[2cc	4.ff
8A	.	.	.	.
8A	.	.	.	.
8A	8g	.	.	8ee
=32	=32	=32	=32	=32
8A	8f	2r	4.cc]	8ff
8A	8f	.	.	8ff
8A	8A	.	.	8aa
8A	8A	.	8a	8ccc
=33	=33	=33	=33	=33
8B	8B	2r	2g	[2ee
8B	8B	.	.	.
8B	8B	.	.	.
8B	8B	.	.	.
=34	=34	=34	=34	=34
8BB	8B	2r	8f#	8ee]
8BB	8B	.	16f#	16dd#
.	.	.	16g	16ee
8BB	8B	.	8a	8ff#
8BB	8B	.	8f#	8dd#
=35	=35	=35	=35	=35
4E	4e	2r	4e	4ee
4r	4r	.	[4e	[4ee
=36	=36	=36	=36	=36
2r	2r	2r	8e]	8ee]
.	.	.	8d	8dd
.	.	.	8c	8cc
.	.	.	8B	8b
=37	=37	=37	=37	=37
2r	2r	2r	8e	8ee
.	.	.	8g	8gg
.	.	.	8f	8ff
.	.	.	8b	8dd
=38	=38	=38	=38	=38
8e	8g	2r	[2cc	4cc
8c	8e	.	.	.
8e	8g	.	.	4r
8c	8e	.	.	.
=39	=39	=39	=39	=39
16e	16g	2r	8cc]	2r
16d	16f	.	.	.
16c	16e	.	8cc	.
16d	16f	.	.	.
8e	8g	.	8cc	.
8c	8e	.	8cc	.
=40	=40	=40	=40	=40
[2d	[2f	2r	[2cc	8aa
.	.	.	.	8ff
.	.	.	.	8aa
.	.	.	.	8ff
=41	=41	=41	=41	=41
8d]	8f]	2r	8cc]	16aa
.	.	.	.	16gg
8d	8f	.	8cc	16ff
.	.	.	.	16gg
8d	8f	.	8cc	8aa
8d	8f	.	8cc	8ff
=42	=42	=42	=42	=42
8d	2f 2G	2r	8b	[2ddd
8f	.	.	8g	.
8d	.	.	8b	.
8f	.	.	8g	.
=43	=43	=43	=43	=43
16d	2f 2G	2r	16b	8ddd]
16e	.	.	16a	.
16f	.	.	16g	8ddd
16e	.	.	16a	.
8d	.	.	8b	8ddd
8f	.	.	8g	8ddd
=44	=44	=44	=44	=44
4e	8e	2r	8gg	[2ddd
.	8c	.	8ee	.
4r	8e	.	8gg	.
.	8c	.	8ee	.
=45	=45	=45	=45	=45
2r	16e	2r	16gg	8ddd]
.	16d	.	16ff	.
.	16c	.	16ee	8ccc
.	16d	.	16ff	.
.	8e	.	8gg	8ccc
.	8c	.	8ee	8ccc
=46	=46	=46	=46	=46
8A	8f#	2r	[2ff#	8ccc
8c	8a	.	.	8aa
8A	8f#	.	.	8ccc
8c	8a	.	.	8aa
=47	=47	=47	=47	=47
16A	16f#	2r	8ff#]	16ccc
16B	16g	.	.	16bb
16c	16a	.	8ff#	16aa
16B	16g	.	.	16bb
8A	8f#	.	8ff#	8ccc
8c	8a	.	8ff#	8aa
=48	=48	=48	=48	=48
8G	8b	2r	[2gg	8bb
8B	8dd	.	.	8gg
8G	8b	.	.	8bb
8B	8dd	.	.	8gg
=49	=49	=49	=49	=49
16G	16b	2r	8gg]	16bb
16A	16cc	.	.	16aa
16B	16dd	.	8gg	16gg
16A	16cc	.	.	16aa
8G	8b	.	8gg	8bb
8B	8dd	.	8gg	8gg
=50	=50	=50	=50	=50
8E	[2g	2r	8gg	[2ccc#
8G	.	.	8ee	.
8E	.	.	8gg	.
8G	.	.	8ee	.
=51	=51	=51	=51	=51
16E	8g]	2r	16gg	8ccc#]
16F#	.	.	16ff#	.
16G	8g	.	16ee	8ccc#
16F#	.	.	16ff#	.
8E	8g	.	8gg	8ccc#
8G	8g	.	8ee	8ccc#
=52	=52	=52	=52	=52
4D	8a	2r	4ff#	8ddd
.	8r	.	.	8dd
4r	16a	.	8r	16ccc
.	16g	.	.	16bb
.	16f#	.	8d	16aa
.	16a	.	.	16ccc
=53	=53	=53	=53	=53
4r	8g	2r	8G	8bb
.	8b	.	8g	8gg
16c	4r	.	4r	16aa
16B	.	.	.	16gg
16A	.	.	.	16ff#
16c	.	.	.	16aa
=54	=54	=54	=54	=54
8B	4.r	2r	4r	8gg
8G	.	.	.	8bb
4r	.	.	16ff#	16aa
.	.	.	16gg	16bb
.	8d	.	16aa	16ccc
.	.	.	16ff#	16aa
=55	=55	=55	=55	=55
4r	8B	2r	8gg	8bb
.	8G	.	8bb	8ddd
16A	4r	.	8r	16ff#
16B	.	.	.	16gg
16c	.	.	8d	16aa
16A	.	.	.	16ff#
=56	=56	=56	=56	=56
4G	2r	2r	16b	16gg
.	.	.	16cc	16aa
.	.	.	16dd	16bb
.	.	.	16b	16gg
4r	.	.	16a	16ff#
.	.	.	16b	16gg
.	.	.	16cc	16aa
.	.	.	16a	16ff#
=57	=57	=57	=57	=57
2r	2r	2r	16g	16ee
.	.	.	16a	16ff#
.	.	.	16b	16gg
.	.	.	16g	16ee
.	.	.	16f#	16dd
.	.	.	16g	16ee
.	.	.	16a	16ff#
.	.	.	16f#	16dd
=58	=58	=58	=58	=58
2r	16e	2r	4e	16cc
.	16f#	.	.	16dd
.	16g	.	.	16ee
.	16e	.	.	16cc
.	16d	.	4r	16b
.	16e	.	.	16cc
.	16f#	.	.	16dd
.	16d	.	.	16b
=59	=59	=59	=59	=59
2r	16c	2r	2r	16a
.	16d	.	.	16b
.	16e	.	.	16cc
.	16c	.	.	16a
.	16B	.	.	16g
.	16c	.	.	16a
.	16d	.	.	16b
.	16B	.	.	16g
=60	=60	=60	=60	=60
16A	8A	2r	8c	8f#
16B	.	.	.	.
16c	8r	.	8r	8r
16A	.	.	.	.
16G	8G	.	8B	8g
16A	.	.	.	.
16B	8r	.	8r	8r
16G	.	.	.	.
=61	=61	=61	=61	=61
16F#	8F#	2r	8d	8a
16G	.	.	.	.
16A	8r	.	8r	8r
16F#	.	.	.	.
16E	8E	.	8g	8b
16F#	.	.	.	.
16G	8r	.	8r	8r
16E	.	.	.	.
=62	=62	=62	=62	=62
16D	8D	2r	8a	8cc
16E	.	.	.	.
16F#	8d	.	8a	8ccc
16D	.	.	.	.
8G	8d	.	8g	8bb
8G	8d	.	8g	8bb
=63	=63	=63	=63	=63
8C	8c	2r	8ee	16aa
.	.	.	.	16bb
8C	8c	.	8ee	16ccc
.	.	.	.	16aa
8D	8A	.	8cc	16ff#
.	.	.	.	16gg
8D	8A	.	8cc	16aa
.	.	.	.	16ff#
=64	=64	=64	=64	=64
8B	8d	2r	4b	4gg
8G	8B	.	.	.
8B	8d	.	4r	4r
8G	8B	.	.	.
=65	=65	=65	=65	=65
2r	2r	2r	8b	8dd
.	.	.	8g	8b
.	.	.	8b	8dd
.	.	.	8g	8b
=66	=66	=66	=66	=66
8d	8b	2r	2r	2r
8B	8g	.	.	.
8d	8b	.	.	.
8B	8g	.	.	.
=67	=67	=67	=67	=67
2r	2r	2r	8bb	8ddd
.	.	.	8gg	8bb
.	.	.	8bb	8ddd
.	.	.	8gg	8bb
=68	=68	=68	=68	=68
8d	8f	2r	2r	2r
8B	8d	.	.	.
8d	8f	.	.	.
8B	8d	.	.	.
=69	=69	=69	=69	=69
2r	2r	2r	8ff	8gg
.	.	.	8dd	8b
.	.	.	8ff	8gg
.	.	.	8dd	8b
=70	=70	=70	=70	=70
8d	8f	2r	4r	4r
8B	8d	.	.	.
4r	4r	.	8ff	8gg
.	.	.	8dd	8b
=71	=71	=71	=71	=71
8d	8f	2r	4r	4r
8B	8d	.	.	.
4r	4r	.	8ff	8gg
.	.	.	8dd	8b
=72	=72	=72	=72	=72
2r	2r	2r	2r	2r
=73	=73	=73	=73	=73
8C	8G 8e	2r	8cc 8e	8gg
8r	8r	.	8r	8ee
8C	8e 8G	.	8e 8cc	8gg
8r	8r	.	8r	8ee
=74	=74	=74	=74	=74
4C	4G 4e	2r	4e 4cc	16gg
.	.	.	.	16ff
.	.	.	.	16ee
.	.	.	.	16ff
4r	4r	.	4r	8gg
.	.	.	.	8ee
=75	=75	=75	=75	=75
8C	8G 8e	2r	8cc 8e	16gg
.	.	.	.	16ff
8C	8G 8e	.	8e 8cc	16ee
.	.	.	.	16ff
8C	8e 8G	.	8cc 8e	16gg
.	.	.	.	16ff
8C	8G 8e	.	8cc 8e	16ee
.	.	.	.	16ff
=76	=76	=76	=76	=76
4C	4G 4e	2r	4cc 4e	16gg
.	.	.	.	16ff
.	.	.	.	16ee
.	.	.	.	16ff
4r	4r	.	4r	8gg
.	.	.	.	8ee
=77	=77	=77	=77	=77
8AA	8e	2r	8cc#	8aa
8AA	8e	.	8cc#	8aa
8AA	8e	.	8cc#	8gg
8AA	8e	.	8cc#	16ff
.	.	.	.	16gg
=78	=78	=78	=78	=78
8D	8A	2r	8dd	8ff
8D	8A	.	8dd	8ff
8GG	8d	.	8b	8gg
8GG	8d	.	8b	16ff
.	.	.	.	16gg
=79	=79	=79	=79	=79
8C	8G	2r	8cc	8ee
8C	8G	.	8cc	8ee
8FF	8A	.	8a	8ff
8FF	8A	.	16g	16ee
.	.	.	16f	16dd
=80	=80	=80	=80	=80
4GG	[4G	2r	4e	4cc
8GG	8G]	.	8d	8b
8r	8r	.	8r	8r
=81	=81	=81	=81	=81
2r	8b	2r	8dd	8gg
.	8g	.	8b	8r
.	8b	.	8dd	8gg
.	8g	.	8b	8r
=82	=82	=82	=82	=82
2r	16b	2r	16dd	4gg
.	16a	.	16cc	.
.	16g	.	16b	.
.	16a	.	16cc	.
.	8b	.	8dd	4r
.	8g	.	8b	.
=83	=83	=83	=83	=83
2r	8cc	2r	8ee	8gg
.	8g	.	8cc	8r
.	8cc	.	8ee	8gg
.	8g	.	8cc	8r
=84	=84	=84	=84	=84
2r	16cc	2r	16ee	4gg
.	16b	.	16dd	.
.	16a	.	16cc	.
.	16b	.	16dd	.
.	8cc	.	8ee	4r
.	8g	.	8cc	.
=85	=85	=85	=85	=85
2r	16dd	2r	16ff	8gg
.	16ee	.	16gg	.
.	16dd	.	16ff	8gg
.	16ee	.	16gg	.
.	16cc	.	16ee	8gg
.	16dd	.	16ff	.
.	16cc	.	16ee	8gg
.	16dd	.	16ff	.
=86	=86	=86	=86	=86
2r	16b	2r	16dd	4gg
.	16a	.	16cc	.
.	16g	.	16b	.
.	16f	.	16a	.
.	16e	.	16g	4r
.	16d	.	16f	.
.	16c	.	16e	.
.	16B	.	16d	.
=87	=87	=87	=87	=87
8B-	8c	2r	8e	8ccc
8G	8r	.	8r	8r
8B-	8g	.	8ee 8cc	8ccc
8G	8r	.	8r	8r
=88	=88	=88	=88	=88
16B-	4g	2r	4ee 4cc	4ccc
16A	.	.	.	.
16G	.	.	.	.
16A	.	.	.	.
8B-	4r	.	4r	4r
8G	.	.	.	.
=89	=89	=89	=89	=89
16B-	8g	2r	8cc 8ee	8ccc
16A	.	.	.	.
16G	8g	.	8ee 8cc	8ccc
16A	.	.	.	.
16B-	8g	.	8ee 8cc	8ccc
16A	.	.	.	.
16G	8g	.	8ee 8cc	8ccc
16A	.	.	.	.
=90	=90	=90	=90	=90
16B-	4g	2r	4ee 4cc	4ccc
16A	.	.	.	.
16G	.	.	.	.
16A	.	.	.	.
8B-	4r	.	4r	4r
8G	.	.	.	.
=91	=91	=91	=91	=91
8F	2c	2r	[2cc	16aa
.	.	.	.	16bb
8F	.	.	.	16ccc
.	.	.	.	16aa
8E	.	.	.	8gg
8E	.	.	.	8gg
=92	=92	=92	=92	=92
8D	8f	2r	8cc]	16ff
.	.	.	.	16gg
8D	8f	.	8b	16aa
.	.	.	.	16ff
8C	8g	.	8cc	8ee
8C	8g	.	8cc	8ee
=93	=93	=93	=93	=93
8F	8a	2r	8a	16dd
.	.	.	.	16ee
8F	8a	.	8a	16ff
.	.	.	.	16dd
8G	8f	.	16d	16b
.	.	.	16e	16cc
8G	8f	.	16f	16dd
.	.	.	16d	16b
=94	=94	=94	=94	=94
4C	[2g	2r	4.e-	4.cc
4r	.	.	.	.
.	.	.	8f	8b
=95	=95	=95	=95	=95
2r	2g_	2r	8e-	8cc
.	.	.	8d	8b
.	.	.	8e-	8cc
.	.	.	8d	8dd
=96	=96	=96	=96	=96
4C	2g_	2r	8c	16ee-
.	.	.	.	16ff
.	.	.	8d	16ee-
.	.	.	.	16dd
4r	.	.	8e-	8cc
.	.	.	8d	8dd
=97	=97	=97	=97	=97
4C	2g]	2r	8c	16ee-
.	.	.	.	16ff
.	.	.	8d	16ee-
.	.	.	.	16dd
4r	.	.	8e-	8cc
.	.	.	8cc	8ee-
=98	=98	=98	=98	=98
4GG	[2d	2r	4.b-	4.gg
4r	.	.	.	.
.	.	.	8a	8ff#
=99	=99	=99	=99	=99
2r	2d_	2r	8b-	8gg
.	.	.	8a	8ff#
.	.	.	8b-	8gg
.	.	.	8a	8aa
=100	=100	=100	=100	=100
4GG	2d_	2r	8g	16bb-
.	.	.	.	16ccc
.	.	.	8a	16bb-
.	.	.	.	16aa
4r	.	.	8b-	8gg
.	.	.	8a	8aa
=101	=101	=101	=101	=101
4GG	2d]	2r	8g	16bb-
.	.	.	.	16ccc
.	.	.	8a	16bb-
.	.	.	.	16aa
4r	.	.	8b-	8gg
.	.	.	8b-	8gg
=102	=102	=102	=102	=102
8C	[2e-	2r	[2a-	[2aa-
8C	.	.	.	.
8C	.	.	.	.
8C	.	.	.	.
=103	=103	=103	=103	=103
8C	2e-]	2r	2a-]	8aa-]
8C	.	.	.	8aa-
8C	.	.	.	8bb-
8C	.	.	.	8ccc
=104	=104	=104	=104	=104
8D	2a-	2r	[2f	8ccc
8D	.	.	.	8bb-
8D	.	.	.	8fff
8D	.	.	.	8eee-
=105	=105	=105	=105	=105
8D	2b-	2r	2f_	8ddd
8D	.	.	.	8ccc
8D	.	.	.	8bb-
8D	.	.	.	8aa-
=106	=106	=106	=106	=106
8E-	8B-	2r	8f]	8aa-
8E-	8B-	.	8e-	8gg
8AA-	8A-	.	8cc	8aa-
8AA-	8A-	.	8a-	8ff
=107	=107	=107	=107	=107
8BB-	8B-	2r	8a-	8ff
8BB-	8B-	.	8g	8ee-
8BB-	8B-	.	8g	8ee-
8BB-	8B-	.	8f	8dd
=108	=108	=108	=108	=108
8G	8b-	2r	4e-	[2ee-
8E-	8g	.	.	.
8G	8b-	.	4r	.
8E-	8g	.	.	.
=109	=109	=109	=109	=109
16G	16b-	2r	2r	2ee-]
16F	16a-	.	.	.
16E-	16g	.	.	.
16F	16a-	.	.	.
8G	8b-	.	.	.
8E-	8g	.	.	.
=110	=110	=110	=110	=110
2C	8g	2r	8b-	[2ee
.	8e	.	8g	.
.	8g	.	8b-	.
.	8e	.	8g	.
=111	=111	=111	=111	=111
2C	16g	2r	16b-	2ee]
.	16f	.	16a-	.
.	16e	.	16g	.
.	16f	.	16a-	.
.	8g	.	8b-	.
.	8e	.	8g	.
=112	=112	=112	=112	=112
8A-	8cc	2r	4f	[2ff
8F	8a-	.	.	.
8A-	8cc	.	4r	.
8F	8a-	.	.	.
=113	=113	=113	=113	=113
16A-	16cc	2r	2r	2ff]
16G	16b-	.	.	.
16F	16a-	.	.	.
16G	16b-	.	.	.
8A-	8cc	.	.	.
8F	8a-	.	.	.
=114	=114	=114	=114	=114
2D	8a	2r	8cc	[2ff#
.	8f#	.	8a	.
.	8a	.	8cc	.
.	8f#	.	8a	.
=115	=115	=115	=115	=115
2D	16a	2r	16cc	2ff#]
.	16g	.	16b	.
.	16f#	.	16a	.
.	16g	.	16b	.
.	8a	.	8cc	.
.	8f#	.	8a	.
=116	=116	=116	=116	=116
4G	4g	2r	4b	16gg
.	.	.	.	16aa-
.	.	.	.	16gg
.	.	.	.	16ff#
4r	8cc	.	8ee-	8gg
.	8cc	.	8ee-	8gg
=117	=117	=117	=117	=117
4r	8b	2r	8dd	16gg
.	.	.	.	16aa-
.	8b	.	8dd	16gg
.	.	.	.	16ff#
8C	8e-	.	4r	8gg
8C	8e-	.	.	8gg
=118	=118	=118	=118	=118
8BB	8d	2r	4r	16gg
.	.	.	.	16aa-
8BB	8d	.	.	16gg
.	.	.	.	16ff#
4r	8cc	.	8ee-	8gg
.	8cc	.	8ee-	8gg
=119	=119	=119	=119	=119
4r	8b	2r	8dd	16gg
.	.	.	.	16aa-
.	8b	.	8dd	16gg
.	.	.	.	16ff#
8C	8e-	.	4r	8gg
8C	8e-	.	.	8gg
=120	=120	=120	=120	=120
8BB	8d	2r	2r	16gg
.	.	.	.	16aa-
8BB	8d	.	.	16gg
.	.	.	.	16ff#
4r	4r	.	.	8gg
.	.	.	.	8gg
=121	=121	=121	=121	=121
2r	2r	2r	2r	8gg
.	.	.	.	8gg
.	.	.	.	8gg
.	.	.	.	8gg
=122	=122	=122	=122	=122
2r	2r	2r	2r	8gg
.	.	.	.	8ff#
.	.	.	.	8gg
.	.	.	.	8ff#
=123	=123	=123	=123	=123
2r	2r	2r	2r	8gg
.	.	.	.	8ff#
.	.	.	.	8gg
.	.	.	.	8ff#
=124	=124	=124	=124	=124
2r	2r	2r	2r	8gg
.	.	.	.	8ff
.	.	.	.	8gg
.	.	.	.	8ff
=125	=125	=125	=125	=125
2r	2r	2r	2r	8gg
.	.	.	.	8ff
.	.	.	.	8gg
.	.	.	.	8ff
=126	=126	=126	=126	=126
8c	8e	2r	8ee	8gg
8r	8r	.	8r	8ee
8c	8e	.	8ee	8gg
8r	8r	.	8r	8ee
=127	=127	=127	=127	=127
4c	4e	2r	4ee	16gg
.	.	.	.	16ff
.	.	.	.	16ee
.	.	.	.	16ff
4r	4r	.	4r	8gg
.	.	.	.	8ee
=128	=128	=128	=128	=128
8c	8e 8G	2r	8cc 8e	16gg
.	.	.	.	16ff
8c	8e 8G	.	8e 8cc	16ee
.	.	.	.	16ff
8c	8e 8G	.	8cc 8e	16gg
.	.	.	.	16ff
8c	8e 8G	.	8e 8cc	16ee
.	.	.	.	16ff
=129	=129	=129	=129	=129
4c	4G 4e	2r	4e 4cc	16gg
.	.	.	.	16ff
.	.	.	.	16ee
.	.	.	.	16ff
4r	4r	.	4r	8gg
.	.	.	.	8ee
=130	=130	=130	=130	=130
8A	8e	2r	8cc#	8aa
8A	8e	.	8cc#	8aa
8A	8e	.	8cc#	8gg
8A	8e	.	8cc#	16ff
.	.	.	.	16gg
=131	=131	=131	=131	=131
8d	8d	2r	8dd	8ff
8d	8d	.	8dd	8ff
8G	8d	.	8b	8gg
8G	8d	.	8b	16ff
.	.	.	.	16gg
=132	=132	=132	=132	=132
8c	8c	2r	8cc	8ee
8c	8c	.	8cc	8ee
8F	8F	.	8a	8ff
8F	8F	.	16g	16ee
.	.	.	16f	16dd
=133	=133	=133	=133	=133
4G	4G	2r	4e	4cc
8GG	4r	.	8d	8b
8r	.	.	8r	8r
=134	=134	=134	=134	=134
2r	8b	2r	8dd	8gg
.	8g	.	8b	8r
.	8b	.	8dd	8gg
.	8g	.	8b	8r
=135	=135	=135	=135	=135
2r	16b	2r	16dd	4gg
.	16a	.	16cc	.
.	16g	.	16b	.
.	16a	.	16cc	.
.	8b	.	8dd	4r
.	8g	.	8b	.
=136	=136	=136	=136	=136
2r	8cc	2r	8ee	8gg
.	8g	.	8cc	8r
.	8cc	.	8ee	8gg
.	8g	.	8cc	8r
=137	=137	=137	=137	=137
2r	16cc	2r	16ee	4gg
.	16b	.	16dd	.
.	16a	.	16cc	.
.	16b	.	16dd	.
.	8cc	.	8ee	4r
.	8g	.	8cc	.
=138	=138	=138	=138	=138
2r	16dd	2r	16ff	8gg
.	16ee	.	16gg	.
.	16dd	.	16ff	8gg
.	16ee	.	16gg	.
.	16cc	.	16ee	8gg
.	16dd	.	16ff	.
.	16cc	.	16ee	8gg
.	16dd	.	16ff	.
=139	=139	=139	=139	=139
2r	16b	2r	16dd	4gg
.	16a	.	16cc	.
.	16g	.	16b	.
.	16f	.	16a	.
.	16e	.	16g	4r
.	16d	.	16f	.
.	16c	.	16e	.
.	16B	.	16d	.
=140	=140	=140	=140	=140
8B-	8c	2r	8e	8ccc
8G	8r	.	8r	8r
8B-	8g	.	8ee 8cc	8ccc
8G	8r	.	8r	8r
=141	=141	=141	=141	=141
16B-	4g	2r	4ee 4cc	4ccc
16A	.	.	.	.
16G	.	.	.	.
16A	.	.	.	.
8B-	4r	.	4r	4r
8G	.	.	.	.
=142	=142	=142	=142	=142
16B-	8g	2r	8ee 8cc	8ccc
16A	.	.	.	.
16G	8g	.	8ee 8cc	8ccc
16A	.	.	.	.
16B-	8g	.	8ee 8cc	8ccc
16A	.	.	.	.
16G	8g	.	8ee 8cc	8ccc
16A	.	.	.	.
=143	=143	=143	=143	=143
16B-	4g	2r	4ee 4cc	4ccc
16A	.	.	.	.
16G	.	.	.	.
16A	.	.	.	.
8B-	4r	.	4r	4r
8G	.	.	.	.
=144	=144	=144	=144	=144
8F	2c	2r	[2cc	16aa
.	.	.	.	16bb
8F	.	.	.	16ccc
.	.	.	.	16aa
8E	.	.	.	8gg
8E	.	.	.	8gg
=145	=145	=145	=145	=145
8D	8f	2r	8cc]	16ff
.	.	.	.	16gg
8D	8f	.	8b	16aa
.	.	.	.	16ff
8C	8g	.	8cc	8ee
8C	8g	.	8cc	8ee
=146	=146	=146	=146	=146
8F	8a	2r	8a	16dd
.	.	.	.	16ee
8F	8a	.	8a	16ff
.	.	.	.	16dd
8G	8f	.	16d	16b
.	.	.	16e	16cc
8G	8f	.	16f	16dd
.	.	.	16d	16b
=147	=147	=147	=147	=147
4C	4e	2r	4e	4cc
4r	4r	.	4r	4r
=148	=148	=148	=148	=148
4r	4r	2r	8ee	8gg
.	.	.	8cc	8ee
8E	8g	.	4r	4r
8C	8e	.	.	.
=149	=149	=149	=149	=149
4r	4r	2r	8cc	8ee
.	.	.	8ee	8gg
8C	8e	.	4r	4r
8E	8g	.	.	.
=150	=150	=150	=150	=150
2r	2r	2r	16ee	16gg
.	.	.	16dd	16ff
.	.	.	16cc	16ee
.	.	.	16dd	16ff
.	.	.	8ee	8gg
.	.	.	8cc	8ee
=151	=151	=151	=151	=151
16E	16g	2r	2r	2r
16D	16f	.	.	.
16C	16e	.	.	.
16D	16f	.	.	.
8E	8g	.	.	.
8C	8e	.	.	.
=152	=152	=152	=152	=152
2r	2r	2r	16cc	16ee
.	.	.	16dd	16ff
.	.	.	16ee	16gg
.	.	.	16dd	16ff
.	.	.	8cc	8ee
.	.	.	8ee	8gg
=153	=153	=153	=153	=153
16C	16e	2r	2r	2r
16D	16f	.	.	.
16E	16g	.	.	.
16D	16f	.	.	.
8C	8e	.	.	.
8E	8g	.	.	.
=154	=154	=154	=154	=154
2r	2r	2r	16ee	16gg
.	.	.	16dd	16ff
.	.	.	16cc	16ee
.	.	.	16dd	16ff
.	.	.	16ee	16gg
.	.	.	16dd	16ff
.	.	.	16cc	16ee
.	.	.	16dd	16ff
=155	=155	=155	=155	=155
16C	16e	2r	16ee	16gg
16D	16f	.	16dd	16ff
16E	16g	.	16cc	16ee
16D	16f	.	16dd	16ff
16C	16e	.	16ee	16gg
16D	16f	.	16dd	16ff
16E	16g	.	16cc	16ee
16D	16f	.	16dd	16ff
=156	=156	=156	=156	=156
16C	16e	2r	16ee	16gg
16D	16f	.	16dd	16ff
16E	16g	.	16cc	16ee
16D	16f	.	16dd	16ff
8C	16e	.	16ee	16gg
.	16f	.	16dd	16ff
8C	16g	.	16ee	16gg
.	16f	.	16ff	16aa
=157	=157	=157	=157	=157
4C	4e	2r	4gg	4bb-
4r	4r	.	4r	4r
=158	=158	=158	=158	=158
8F	8c	2r	8a	[2aa
8A	8c	.	8cc	.
8F	8c	.	8a	.
8A	8c	.	8cc	.
=159	=159	=159	=159	=159
4F	4c	2r	4a	8aa]
.	.	.	.	16bb
.	.	.	.	16ccc
4r	4r	.	4r	16bb
.	.	.	.	16aa
.	.	.	.	16gg
.	.	.	.	16ff
=160	=160	=160	=160	=160
8G	8e	2r	8cc	8ee
8G	8e	.	8cc	16ff#
.	.	.	.	16gg
8G	8e	.	8cc	16ff#
.	.	.	.	16gg
8G	8e	.	8cc	16ff#
.	.	.	.	16gg
=161	=161	=161	=161	=161
8G	8e	2r	8cc	8gg
8G	8e	.	8cc	16aa
.	.	.	.	16gg
8G	8e	.	8cc	16ff
.	.	.	.	16ee
8G	8e	.	8cc	16dd
.	.	.	.	16cc
=162	=162	=162	=162	=162
8G	8d	2r	8cc	8g
8G	8d	.	8cc	8r
8G	8d	.	8b	8dd 8bb
8G	8d	.	8dd	8r
=163	=163	=163	=163	=163
4C	4c	2r	4cc	4ccc 4ee
4r	4r	.	4r	4r
=164	=164	=164	=164	=164
4G	8G	2r	8d	8f
.	8G	.	8B	8d
4r	8G	.	8d	8f
.	8G	.	8B	8d
=165	=165	=165	=165	=165
4C	8G	2r	16c	16e
.	.	.	16d	16f
.	8G	.	16e	16g
.	.	.	16d	16f
4r	8G	.	8c	8e
.	8G	.	8c	8g
=166	=166	=166	=166	=166
4G	8G	2r	8d	8f
.	8G	.	8B	8d
4r	8G	.	8d	8f
.	8G	.	8B	8d
=167	=167	=167	=167	=167
4C	4G	2r	4c	8e
.	.	.	.	8gg
4r	4r	.	4r	8gg
.	.	.	.	8gg
=168	=168	=168	=168	=168
8g	8dd	2r	8ff	8gg
8r	8b	.	8dd	8gg
8g	8dd	.	8ff	8gg
8r	8b	.	8dd	8gg
=169	=169	=169	=169	=169
4c	16cc	2r	16ee	8gg
.	16dd	.	16ff	.
.	16ee	.	16gg	8gg
.	16dd	.	16ff	.
4r	8cc	.	8ee	8gg
.	8ee	.	8gg	8gg
=170	=170	=170	=170	=170
8g	8dd	2r	8ff	8gg
8r	8b	.	8dd	8gg
8g	8dd	.	8ff	8gg
8r	8b	.	8dd	8gg
=171	=171	=171	=171	=171
4c	4cc	2r	4ee	4gg
4r	4r	.	4r	4r
==	==	==	==	==
*-	*-	*-	*-	*-
!!!RWG1: This file contains only pitch and duration data.
!!!RWG2: Transposing instruments are not transposed.
!!!RWG3: Spines may have incompatible meters.
!!!RWG4: Durations of rests and tied notes may be interpreted.
!!!RWG: Key is interpreted using the Humdrum key tool.
!!!GTL: 6 Quators ("Jungfernquartette")
!!!OPT: The Bird
!!!AFT: stage1
!!!END: 1997/04/15
!!!KEY: 633457932
!!!EMD: Converted from MuseData to Humdrum Dec 16, 2000, by Andreas Kornstaedt using muse2kern.
!!!EMD: Manual editing by Craig Sapp, Nov 2001
